web/packages/design/src/ResourceIcon/assets/outreach.io.svg

<svg width="72" height="72" viewBox="0 0 72 72" fill="none" xmlns="http://www.w3.org/2000/svg">
<path fill-rule="evenodd" clip-rule="evenodd" d="M32.0198 3.00195C43.0465 3.00195 59.7082 6.30268 67.4642 13.8719C69.4291 15.7911 72 19.55 72 25.0551C72 34.8427 63.9193 49.8597 54.9968 58.5696C50.3841 63.0719 43.0465 68.9557 33.1765 68.9557C23.5278 68.9557 16.159 62.5599 14.0258 60.4772C5.8537 52.5011 0 40.3947 0 29.1063C0 21.9835 2.0803 15.7537 7.38807 10.5759C12.3038 5.77905 20.7741 3.00195 32.0198 3.00195ZM46.0691 42.4349C49.7919 38.8 50.7949 34.3235 50.7949 31.8596C50.7949 30.0736 50.3138 27.4531 48.0243 25.2207C44.513 21.7938 40.6242 20.826 36.3938 20.826C31.0357 20.826 27.4353 22.4787 25.0377 24.821C23.1569 26.6561 21.5312 29.4774 21.5312 33.4866C21.5312 37.4933 23.7197 41.3644 26.1055 43.6903C28.3084 45.8409 31.7716 47.4329 35.2587 47.4329C38.7459 47.4329 42.3462 46.07 46.0691 42.4349Z" fill="#5951FF"/>
</svg>

<svg xmlns="http://www.w3.org/2000/svg" width="72" height="72" fill="none" viewBox="0 0 72 72"><path fill="#5951ff" fill-rule="evenodd" d="M32.02 3.002c11.026 0 27.688 3.3 35.444 10.87C69.43 15.792 72 19.55 72 25.055c0 9.788-8.08 24.805-17.003 33.515-4.613 4.502-11.95 10.386-21.82 10.386-9.65 0-17.018-6.396-19.151-8.479C5.854 52.501 0 40.395 0 29.107c0-7.123 2.08-13.353 7.388-18.531 4.916-4.797 13.386-7.574 24.632-7.574m14.05 39.433c3.722-3.635 4.725-8.111 4.725-10.575 0-1.786-.481-4.407-2.77-6.64-3.512-3.426-7.4-4.394-11.631-4.394-5.358 0-8.959 1.653-11.356 3.995-1.881 1.835-3.507 4.656-3.507 8.666 0 4.006 2.189 7.877 4.575 10.203 2.202 2.15 5.666 3.743 9.153 3.743s7.087-1.363 10.81-4.998" clip-rule="evenodd"/></svg>
